release/img/science-flat.svg

<svg width="31" height="31" viewBox="0 0 31 31" fill="none" xmlns="http://www.w3.org/2000/svg">
<path d="M5.27166 27.4444C5.27166 27.4444 5.1613 27.3611 5.13371 27.3333C4.8854 27.1667 4.74744 26.8333 4.83022 26.5278C4.91299 26.1944 5.1613 26 5.49239 26C5.51998 26 5.57516 26 5.60275 26C10.1276 26 14.6524 26 19.1772 26C19.729 26 20.0325 26.3611 19.9497 26.8611C19.8946 27.1389 19.7014 27.2778 19.4807 27.4167H5.29925L5.27166 27.4444Z" fill="black"/>
<path d="M7.09277 24.5278C7.09277 23.2778 7.09277 22.0556 7.09277 20.8056C7.09277 20.3889 7.39627 20.1111 7.78253 20.0833C7.8653 20.0833 7.94808 20.0833 8.03085 20.0833C11.0658 20.0833 14.1283 20.0833 17.1633 20.0833C17.991 20.0833 18.7911 19.8889 19.4808 19.3611C20.5293 18.5278 20.9431 17.4167 20.7776 16.1111C20.5845 14.5833 19.6464 13.5556 18.1841 13.1944C17.9634 13.1389 17.7151 13.0833 17.4943 13.0833C16.8046 13.0833 16.1148 13.0833 15.4251 13.0833C15.4251 13.5833 15.4251 14.0833 15.4251 14.5833C15.4251 15.0833 15.1492 15.3611 14.6525 15.3611C13.1627 15.3611 11.6728 15.3611 10.1829 15.3611C9.68627 15.3611 9.41036 15.0556 9.41036 14.5833C9.41036 12.0833 9.41036 9.55556 9.41036 7.05556C9.41036 6.58333 9.6035 6.38889 10.1553 6.22222V4.44444C9.6035 4.33333 9.35518 4.02778 9.43795 3.55556C9.49313 3.25 9.74145 3 10.0725 3C11.6176 3 13.1902 3 14.7353 3C15.094 3 15.3699 3.27778 15.3975 3.63889C15.4251 4 15.2043 4.33333 14.8457 4.41667C14.7905 4.41667 14.7353 4.41667 14.6525 4.41667V6.22222C15.2043 6.36111 15.3975 6.58333 15.3975 7.02778C15.3975 7.16667 15.3975 7.27778 15.3975 7.41667C15.3975 7.77778 15.3975 8.13889 15.3975 8.55556C15.4802 8.55556 15.563 8.55556 15.6182 8.55556C16.2804 8.55556 16.9701 8.55556 17.6323 8.55556C20.5017 8.69444 22.6813 10.0556 24.1988 12.5C25.0265 13.8333 25.3576 15.3333 25.3024 16.9167C25.1645 20.4722 22.5434 23.6389 19.067 24.3611C18.5428 24.4722 17.991 24.5556 17.4392 24.5556C14.0455 24.5556 10.6519 24.5556 7.25832 24.5556C7.20313 24.5556 7.17554 24.5556 7.12036 24.5556C7.12036 24.5556 7.12036 24.5556 7.09277 24.5278ZM12.4453 10.8333C12.4453 12.0278 13.4661 13.0556 14.6801 13.0556C15.8941 13.0556 16.9149 12.0278 16.9149 10.8333C16.9149 9.55556 15.9493 8.58333 14.6801 8.58333C13.411 8.58333 12.4453 9.58333 12.4453 10.8611V10.8333Z" fill="black"/>
<path d="M14.5971 16.8334C14.5971 17.0834 14.5971 17.3057 14.5971 17.5557C14.5971 17.9168 14.2936 18.2223 13.9349 18.2223C12.8865 18.2223 11.838 18.2223 10.7896 18.2223C10.4309 18.2223 10.155 17.9446 10.1274 17.5557C10.1274 17.3057 10.1274 17.0557 10.1274 16.8057H14.5695C14.5695 16.8057 14.5695 16.8057 14.5971 16.8334Z" fill="black"/>
<path d="M14.5974 16.8334C14.5974 16.8334 14.5974 16.8334 14.5698 16.8057C14.5698 16.8057 14.5698 16.8057 14.5974 16.8334Z" fill="#282726"/>
<path d="M7.09277 24.5273C7.09277 24.5273 7.09277 24.5273 7.12036 24.5551C7.12036 24.5551 7.12036 24.5551 7.09277 24.5273Z" fill="#444242"/>
<path d="M15.4801 10.806C15.4801 11.2782 15.1215 11.6115 14.68 11.6115C14.211 11.6115 13.8523 11.2504 13.8799 10.7782C13.8799 10.3338 14.2386 9.97266 14.7076 9.97266C15.1767 9.97266 15.5077 10.3338 15.5077 10.806H15.4801Z" fill="black"/>
</svg>

<svg xmlns="http://www.w3.org/2000/svg" width="31" height="31" fill="none" viewBox="0 0 31 31">
  <path fill="#000" d="M5.272 27.444s-.11-.083-.138-.11a.756.756 0 0 1-.304-.806c.083-.334.331-.528.662-.528h13.685c.552 0 .855.361.773.861-.055.278-.249.417-.47.556H5.3l-.028.027Zm1.821-2.916v-3.722c0-.417.303-.695.69-.723h9.38c.828 0 1.628-.194 2.318-.722 1.048-.833 1.462-1.944 1.297-3.25-.194-1.528-1.132-2.555-2.594-2.917a2.979 2.979 0 0 0-.69-.11h-2.069v1.5c0 .5-.276.777-.773.777h-4.47c-.496 0-.772-.305-.772-.778V7.056c0-.473.194-.667.745-.834V4.444c-.551-.11-.8-.416-.717-.888.055-.306.303-.556.634-.556h4.663c.359 0 .635.278.663.639a.726.726 0 0 1-.552.778h-.194v1.805c.552.14.746.361.746.806v1.528h2.234c2.87.138 5.05 1.5 6.567 3.944.827 1.333 1.159 2.833 1.103 4.417-.137 3.555-2.759 6.722-6.235 7.444a7.908 7.908 0 0 1-1.628.195H7.12l-.027-.028Zm5.352-13.695c0 1.195 1.021 2.223 2.235 2.223s2.235-1.028 2.235-2.223c0-1.277-.966-2.25-2.235-2.25s-2.235 1-2.235 2.278v-.028Z"/>
  <path fill="#000" d="M14.597 16.833v.723a.674.674 0 0 1-.662.666H10.79c-.36 0-.635-.277-.663-.666v-.75h4.442l.028.027Z"/>
  <path fill="#282726" d="m14.597 16.833-.027-.027.027.027Z"/>
  <path fill="#444242" d="m7.093 24.527.027.028-.027-.028Z"/>
  <path fill="#000" d="M15.48 10.806a.786.786 0 0 1-.8.806c-.469 0-.828-.362-.8-.834a.81.81 0 0 1 .828-.805c.469 0 .8.36.8.833h-.028Z"/>
</svg>
